X: 282
T: Silver Wedding Waltz
M:3/4
R:waltz
C: Pat Chafe
L:1/8
Z:Alf Warnock - alf0@rogers.com
K:D
A2|"D"a4 "D""dim"^g2| "Bm7"b2 a2 f2| "G"d4 c2| "Em7"e2 d2 B2|\
"D"A4 d2| "G"g2 f2 d2| "E7"f2 e2 ^d2| "A7"e4 A2|
"D"a4 "D""dim"^g2| "Bm7"b2 a2 f2| "G"d4 c2| "Em7"e2 d2 B2|\
"D"A2 f2 A2| "A7"A2 f2 e2| "D"d6| d4 :|
d2| "A7"e4 f2| g2 f2 g2| "D"b2 a2 d2| f4 d2|\
"Em7"e4 f2| "G"g2 f2 d2| "E7"f2 e2 B2| "A7"c4 A2|
"D"a4 ^ga|"D7"f2 g2 a2| "G"a2 g2 d2| B4 A2|\
"D"A2 f2 A2| "A7"A2 f2 e2| "D"d6| d4 :|
%%text Harmony
A2|"D"f4 "D""dim"=f2| "Bm7"g2 f2 d2| "G"B4 ^A2| "Em7"c2 B2 G2|\
"D"F6| "G"e2 d2 A2| "E7"^G4 B2| "A7"c4 A2|
"D"f4 "D""dim"=f2| "Bm7"g2 f2 d2| "G"B4 ^A2| "Em7"c2 B2 G2|\
"D"F2 A2 F2| "A7"G2 A2 G2| "D"F6| F4 :|
d2|\
"A7"c4 d2| e2 d2 e2| "D"g2 f2 A2| d4 A2|\
"Em7"B4 d2| "G"e2 d2 B2| "E7"^G2 B2 ^G2| "A7"A4 G2|
"D"f4 =ff|"D7"d2 e2 f2| "G"f2 d2 B2| G4 G2|\
"D"F2 A2 F2| "A7"G2 A2 G2| "D"F6| F4 :|
